X:1
T:Fantasia per Flauto Solo
T:Mercadante, Saverio
T:Lutz Kutscher, v. 0.7
T: Fantasia per Flauto Solo
T:con accompagniemento di secondo Flauto o Violino
C:Mercadante, Saverio
%%score 1 2
L:1/8
Q:1/4=70
M:3/4
K:G
V:1 treble nm="Flöte" snm="Fl."
V:2 treble nm="Violine" snm="Vl."
V:1
"^Larghetto"!f! g/ | !fermata!g4 z3/2!f! b/ | !fermata!b4 z3/2!f! e'/ | !fermata!e'4 z2 | %4
 (a4 bc') | d'2- d'(c'/b/ d'/c'/e/a/) |{a} g4{agfg} (ba) | g4 (^c'/d'/b/g/) | %8
 d2- d/(_e/d/)(g/ f/)(c'/b/)(e'/ | d'>)b g2 (^c'/d'/b/g/) | d2- d/(_e/d/)(g/ f/)(c'/b/)(e'/ | %11
 d'>)b g2 (^a/b/g/e/) |{d} ^c2- c/(A/c/e/ a/b/a/g/) |{g} f3 (^c/d/) (^e/f/)(^g/a/) | %14
!<(! (f/g/)(^d/e/) (f/g/)(^a/b/)!<)! (^d'/e'/)!>(!(b/!>)!e'/) |!p!{d'} ^c'2- c'.b.b.b | %16
{b} a2- a.g.g.g |{g} f2- f(^d/e/ f/g/a/b/) | a/(f'/^c'/d'/ ^g/a/b/a/ =g/f/e/d/) | %19
 (B/c/d/^d/ e/f/g/a/ b/c'/!>!d'/b/) | (a/b/^c'/d'/) (a/b/c'/d'/) (!>!^a/b/g/e/) | %21
 (^c/d/e/d/ f/e/g/f/ e/d/g/f/) | Te6{de} | Te'6{d'e'} | d'2- (.d'.d'.d'.d') |{d'} ^c'6 | %26
 c'2- (c'e'd'c') |{c'} b6 | (af').^d'.c'.b.a |{a} g3 (^def) | g3 (^def) | g3 (^ga^a) | %32
 !fermata!b6 |[M:2/4][Q:1/4=80]"^Andante mosso" (b | g)(ge)(e | f2) B^c/^d/ | %36
{/f} (e/^d/e/f/){/a} (g/f/g/a/) |{^a} b3 b | e'(e'a)(a | d'2) (ga) | bc'/b/{/b} (a/g/a/b/) | gbg :: %42
 (b | ^d)(de)(e | f)^dBb | ^d(de)(e | f)^dB(b | e')(e'd')(d' | ^c')(=c'b^a) | (agfb) | eee :: b | %52
 e'/(^a/b/)(f/ g/)(^d/e/).g/ | (f/B/^d/f/ b/c'/b/a/) | .g/(^d/e/f/ g/^g/a/^a/) | %55
 (b/^a/b/a/ b/=a/g/f/) | (e/e'/)(^d'/e'/) (a/b/c'/^c'/) | (e'/d'/).b/.g/ (f'/e'/).c'/.a/ | %58
 (e'/d'/).b/.g/ (d'/c'/).a/.f/ | g/b/d'/(f/ g) :: b | .^d/(b/c'/b/) .e/(g/c'/b/) | %62
 .f/(b/c'/b/) .g/(b/c'/b/) | (^d/c'/).a/.f/ (e/b/).g/.e/ | (f/a'/).f'/.^d'/ (e'/g'/e'/b/) | %65
 (c'/b/c'/b/ c'/a/=f/c/) | (A/c/=f/a/ c'/a/g/f/) | (e/b/g/e/ ^d/a/f/d/) | (e/e'/).b/.g/ .e :| %69
 !fermata!z |[K:C][M:3/4][Q:1/4=100]"^Tempo di Minué" e>f | g2- g>c'b>d' | c'>e' (g3 ^g) | %73
{b} a3 (a/g/) (g/f/) (f/e/) |{/e} d/^c/d/e/ .d(ef^f) | g2- g>c'b>d' | c'>e' g3 ^g | %77
{b} a3 g/f/ e/f/d/B/ | ce c2 z2 | (B/d/a/g/) g2- g/f/d/e/ | (c/e/a/g/-) g2- g/e/d/c/ | %81
 B/d/a/g/ g2- g/f/d/e/ | c7/2 c/ e>f | g2- g>c'b>d' | c'>e' g3{/b} c' | e3 (a/g/) .d(a/g/) | %86
 c4 e2 | c'2- c'>b a>^g | a2- a>g f>e | d2- d>c B>A |{^d} e4 e2 | c'2- c'>b a>^g | a2- a>g f>e | %93
 (df'/)d'/ c'2 Tb2{ab} | a2 z2 e2 |{/^a} b2- b>(ef>e) |{/b} c'2- c'>(ef>e) | d'>(e d'>)(e c'>)(e | %98
{c'} b4) e2 | c'2- c'>ba>^g | a2- a>bc'>d' | e'2- e'>e ^f>^g | a4 (a_b) | %103
 (c'/d'/).c'/.b/ (c'/a/).f/.c/ (A/c/).f/.a/ | c'/_b/g/e/ c/e/g/f/ e/d/c/_B/ | %105
 (A/c/).f/.a/ c'/a/f'/c'/ a/c'/a/f/ | (c/=B/c/B/ c/d/e/f/ g/a/_b/=b/) | %107
 c'/d'/c'/b/ c'/a/f/c/ A/c/f/a/ | c'/_b/g/e/ c/e/g/f/ e/d/c/_B/ | A/c/f/a/ c'/f'/c'/a/ c'/_b/g/e/ | %110
 g/f/c/A/ F2 z2 | c/_b/g/e/ _d/b/g/e/ c/b/g/e/ | _d/_b/g/e/ c/b/g/e/ c/=d/c/=B/ | %113
 (A/a/)f/c/ A/f'/c'/a/ f/c'/a/f/ | (c/B/c/B/ c/d/e/f/ g/a/_b/=b/) | %115
 c'/d'/c'/b/ c'/a/f/c/ A/c/f/a/ | c'/_b/g/e/ c/e/g/f/ e/d/c/_B/ | A/c/f/a/ c'/f'/c'/a/ g/_b/g/e/ | %118
 g/f/c/A/ !fermata!F2 |][K:A][M:2/4][Q:1/4=80]"^Andante cantabile" c'c'e'e' | a3 a | bc'{/e'}d'b | %122
 a/g/f/e/ f/g/a/b/ | c'c'e'e' | a3 ^a | bd'/b/ ag | b2 a z :: bbe'e' | c'c' a2 | ff b2 | gbe z | %131
 bbe'e' | c'c' a2 | ffg.g | b2 a z :: (3c'/.a/.b/ (3.c'/.d'/.^d'/ (3.e'/.f'/((d'/ (3e'/)).^b/(c'/ | %136
 (3a/).A/.c/ (3.e/.a/.c'/ (3(^d'/e'/).=d'/ (3.c'/.b/.a/ | %137
 (3.f/(^a/b/) (3.d'/(a/b/) (3(^e'/f'/).=e'/ (3.=d'/.c'/.b/ | %138
{/.b} (3.a/.g/.a/ (3.c'/.b/.a/ (3.g/.e/.f/ (3.g/.a/.b/ | %139
 (3.c'/.a/.b/ (3.c'/.d'/.^d'/ (3.e'/(d'/f'/) (3.e'/(^b/c'/) | %140
 (3a/A/c/ (3e/a/c'/ (3(^d'/e'/).=d'/ (3.c'/.b/.a/ | (3F/B/d/ (3f/b/d'/ (3E/G/B/ (3e/g/b/ | %142
 (3A/c/e/ (3a/c'/e'/ a' z :: (3b/d'/b/ (3g/e/d/ (3B/G/F/ (3E/F/G/ | %144
 (3(A/c/).e/ (3(a/c'/).e'/ (3(e/a/).c'/ (3(c/e/).a/ | (3B/^d/c/ (3B/d/f/ (3a/g/b/ (3a/f/d/ | %146
 (3.e/(e'/^d'/ (3e'/).b/.g/ (3(e/f/d/) (3.e/.B/.G/ | (3E/G/B/ (3e/g/b/ (3d'/c'/e'/ (3d'/b/g/ | %148
 (3(a/c'/).e'/ (3(e/a/).c'/ (3(c/e/).a/ (3(A/c/).e/ | (3D/F/A/ (3d/f/a/ (3E/G/B/ (3e/g/b/ | %150
 (3A/c/e/ (3a/c'/e'/ a' z :| .b(be')(e' | c').c' .a2 | .b(be')e' | =c'c' a2 | ffd'd' | %156
 b=g'- g'/e'/=c'/a/ |{a} =g3 f | (b/d'/f'/=g'/) (^d'/e'/=c'/a/) |{a} =g3 f |] %160
[K:G][M:3/4][Q:1/4=110]"^Allegro alla Polonaise" g2 z .d.g.b | d'd'- d'/e'/d'/^c'/ d'/b/=c'/a/ | %162
 g g2 f/g/ a/g/c'/b/ | a/g/f/e/ d/e/f/g/ a/b/c'/a/ | (g/b/)(a/c'/) (b/d'/)(c'/e'/) .d'd | %165
 d'd'- d'/e'/d'/^c'/ d'/b/=c'/a/ | gg- gf/g/ a/g/c'/b/ | a/g/f/e/ d/e/f/g/ a/b/c'/a/ | %168
 f/c'/a/f/{a} g4 | a a2 ^g/a/ b/a/e'/d'/ | d'>b gf/g/ a/g/e'/d'/ | %171
 ^c'/d'/e'/f'/ g'/e'/c'/a/ _b/g/e/^c/ | d/f/e/^c/ d/f/e/c/ dd | a a2 ^g/a/ b/a/e'/d'/ | %174
 d'>b bb/d'/ d'/e'/f'/g'/ |{g'} g4{bgfg} ba |{a} g4 z2 | z6 | (f2 f)agb | %179
 a/(^c'/e'/d'/ a3) (g/f/) | e{/f}e/^d/ e{/f}e/d/ e/g/f/e/ | (d/f/)(e/g/) (f/a/)(g/b/) .a2 | %182
 (f2 f)(ag)b | (a/^c'/e'/d'/) a3 (g/f/) | e{/f}e/^d/ e{/f}e/d/ e/g/f/e/ | d4 z2 | %186
 (^a/b/)(f/g/) (^c/d/)(^A/B/) .G2 | B.c/.d/ .e/.f/.g/.a/ .b/.^c'/.d'/.b/ | %188
 (^g/a/)(^e/f/) (^c/d/)(^G/A/) F2 | DE/F/ G/A/B/^c/ d/e/f/d/ | g/a/g/f/ (efg^g) | %191
 ab/a/ a{/e'}d' a2 | g/a/g/f/ (efg^g) | a/b/a/^g/ a{/e'}d' a2 | f4{^gf^ef} ^g^a | %195
 .b.^c' .d'.c'/.b/ .a/.g/.f/.e/ |{e} d3 fe^c | d3 (g/f/) (g/f/)(g/f/) | f4{^gf^ef} ^g^a | %199
 .b.^c' .d'.c'/.b/ .a/.g/.f/.e/ |{e} d3 fe^c | (d/f/).a/.a/ .a/.a/.a/.a/ (!>!^g/a/).f/.d/ | %202
 (^c/e/).a/.a/ .a/.a/.a/.a/ (!>!^c'/b/).g/.e/ | (d/f/).a/.a/ .a/.a/.a/.a/ (!>!^g/a/).f/.d/ | %204
 (^c/e/).a/.a/ .a/.a/.a/.a/ (!>!^c'/b/).g/.e/ | (d/f/)(e/g/) (f/a/)(g/b/) (a/d'/)^c'/b/ | %206
 a/f'/e'/d'/ ^c'/d'/e'/d'/ c'/b/a/g/ | (f/e/^d/e/ f/e/g/f/ a/g/b/a/) | %208
 (^c'/b/^a/b/ a/b/c'/b/ =a/g/f/e/) | (a/d'/^c'/b/ a/^g/b/a/ =g/f/e/d/) | Te6 |!f! Te'6{d'e'} | %212
 d'3 Adf | a !>!a2 b/a/ g/f/g/e/ | df AAdf | a !>!a2 b/a/ g/f/g/e/ | d !>!d2 Adf | a !>!a2 dfa | %218
 c' !>!c'2 fac' | e'(^d' e')(bc')(^g | a)(^d e)(Bc)(A | F)A cAF_E | !fermata!D3 .d.g.b | %223
 d'!>!d'- d'/e'/d'/^c'/ d'/b/=c'/a/ | g !>!g2 f/g/ a/g/c'/b/ | (a/g/f/e/ d/e/f/g/ a/b/c'/a/) | %226
 (g/b/)(a/c'/) (b/d'/)(c'/e'/) d'd | d' !>!d'2 e'/d'/ c'/b/c'/a/ | g !>!g2 f/g/ a/g/c'/b/ | %229
 a/g/f/e/ d/e/f/g/ a/b/c'/a/ | f/c'/a/f/{a} g4 | a !>!a2 ^g/a/ b/a/e'/d'/ | d'>b gc'/b/ a/g/f/e/ | %233
 d{/f}e/d/ d{/f}e/d/ de/f/ | gTg/a/ bTb/c'/ d'd | a !>!a2 ^g/a/ b/a/e'/d'/ | %236
 d'>b gb/c'/ d'/e'/f'/g'/ |{g'} g3 baf | gTd'/c'/ bTb/a/ g/a/b/g/ | aTc'/b/ aTa/g/ f/g/a/f/ | %240
 gTd'/c'/ bTb/a/ g/a/b/g/ | aTc'/b/ aTa/g/ f/g/a/f/ | (G/g/)(B/b/) (d/d'/)(c/c'/) (B/b/)(A/a/) | %243
 (G/g/)(A/a/) (B/b/)(A/a/) (G/g/)(=F/=f/) | (E/^G/).B/.e/ (^g/e/).b/.g/ (d'/b/).g/.e/ | %245
 (=f/d/).B/.^G/ (f/d/).B/.G/ (f/d/).B/.G/ | (A/a/)(c/c'/) (e/e'/)(d/d'/) (c/c'/)(B/b/) | %247
 (A/a/)(B/b/) (c/c'/)(B/b/) (A/a/)(G/g/) | (F/D/).F/.A/ (d/A/)(f/d/) (a/f/)(c'/a/) | %249
 (f/a/)(d/f/) (A/d/)(F/A/) (D/F/).A/.c/ | (B/d/)(d'/d/) (B/d'/)(d/d'/) (c/d'/)(A/d'/) | %251
 (B/d/)(d'/d/) (B/d'/)(d/d'/) (c/d'/)(A/d'/) | (B/d/)(c/e/) (d/f/)(e/g/) (f/a/)(g/b/) | %253
 (a/c'/)(b/d'/) (c'/e'/)(d'/f'/) (e'/g'/)(f'/a'/) | (g'/d'/).b/.g/ (d'/b/).g/.d/ (b/g/).d/.B/ | %255
 (=f'/d'/).b/.g/ (d'/b/).g/.d/ (g/d/).B/.G/ | (g'/e'/).c'/.g/ (e'/c'/).g/.e/ (c'/g/).e/.c/ | %257
 (g'/e'/).^c'/.g/ (e'/c'/)._b/.g/ (c'/b/).g/.e/ | %258
 (d/g/).b/.g/ (!>!^c'/d'/).b/.g/ (!>!c'/d'/).b/.g/ | %259
 (d/g/).b/.g/ (!>!^c'/d'/).b/.g/ (!>!c'/d'/).b/.g/ | Ta6 | Ta6 | g3 .d.g.b | %263
!p! d' !>!d'2 c'/b/ ab/a/ | g !>!g2 b/a/{/a} (g/f/g/e/) | d{/f}e/d/ d{/f}e/d/ de/f/ | g !>!b2 dgb | %267
 d' !>!d'2 c'/b/ ab/a/ | g !>!g2 b/a/ g/f/g/e/ | d{/f}e/d/ d{/f}e/d/ de/f/ | %270
 (g/d'/).b/.g/ (d/b/).g/.d/ (c/A/).F/.D/ | (G/d'/).b/.g/ (d/b/).g/.d/ (c/A/).F/.D/ | %272
 (G/B/).d/.g/ (b/d/).g/.b/ (d'/g/).b/.d'/ | g'4 z2 | g4 z2 | g4 z2 |] %276
V:2
!f! B/ | !fermata!B4 z3/2!f! g/ | !fermata!g4 z3/2!f! ^c/ | !fermata!c4 z2 |!p! (cDccBA) | %5
 (BFGFEc) | d^c d2 D2 |!p! GBGBGB | FAFAFA | GBGBGB | FAFAFA | GBGBGB | GAEA^ce | dA D2 z2 | %14
 G2 G2 ^G2 | A^ceggg | (Adf).e.e.e | dAFA D2 | F2 F2 F2 | G2 G2 G2 | F2 F2 G2 | A2 A2 A2 | !/!A6 | %23
 !/!^c6 | dfdfdf | !/-!e3 g3 | !/-!f3 a3 | gfgfge | d6 | .e(cBAGF) | .E(cBAGF) | .E(e^d=d^c=c) | %32
 B6 |[M:2/4] z | z!p! BGE | (^DFBA) | GFEe | (^dfB) z | (ef/^g/ a=g) | (f/d/e/f/) (gc) | de/d/ DF | %41
 GGG :: z | A/B/A/B/ G/B/G/B/ | (^D/B/D/B/) (E/B/E/B/) | (A/B/A/B/) (G/B/G/B/) | %46
 (^D/F/B/^d/) (f/g/a/d/) | (e/^d/e/f/) (^g/e/f/g/) | a(fg) z | z (^AB)(^D | E).G.E :: z | z GGG | %53
 z ^DDD | E2 e2 | ^ddd z | z cFA | B2 c2 | d2 D2 | GcB :: z | (A2 G2 | ^D2 E2) | A2 G2 | ^DFEG | %65
 A4 | A4 | B2 B2 | EGE :| !fermata!z |[K:C][M:3/4] z2 | ce (g2 f2) | e2 e2 e2 | f f2 edc | %74
 B2 B2 z2 | c>e g2 f2 | e2 e2 E2 | FD G2 G2 | EG E2 z2 | FGFG(FG) | EGEGEG | FGFGFG | EGEGEG | %83
 EGcegf | egecGE | G/^F/G/A/ G2 B2 | cG c2 z2 | z A/c/ edcB | A/^G/A/B/ A2 B^c | d2 D2 ^D2 | %90
 E/^G/B/G/ E2 z2 | z A/>c/ edcB | A/^G/A/B/ A2 B^c | dD E2 E2 | AcAcAc | !/-!^G3 B3 | !/-!A3 c3 | %97
 BE^GEAE | E/^G/B/G/ E2 z2 | z A/c/ edcB | A/c/e/c/ ADEF | EA/c/ e2 E2 | A2 A2 z2 | AcAcAc | %104
 EGEGEG | FAFAFA | c2 z4 | AcAcAc | EGEGEG | FAFAc_B | AA F2 z2 | EGEGEG | EGEGEG | FAFAFA | %114
 c2 z2 z2 | AcAcAc | EGEGEG | FAFAc_B | Ac !fermata!A2 |][K:A][M:2/4] (A2 G2) | F f2 e | %121
 d(^AB c/d/) | e2 z2 | (A2 G2) | F f2 e | dB eE | dE A z :: !/-!G2 B2 | !/-!G2 c2 | !/-!^D2 F2 | %130
 EA/B/ e z | !/-!G2 B2 | (ab fe) | ^d2 =d2 | (d2 c) z :: A z AA | A z AA | D2 D2 | EE E z | %139
 A z (AG) | A z cG | D2 E2 | AB A z :: E2 GB | c2 cA | ^D2 FB | G z G z | G z BG | A z ec | dD Ee | %150
 Ac A z :| !//-!G2 B2 | !//-!A2 c2 | !//-!G2 B2 | A2 =c2 | =c/d/c/d/ F/d/F/d/ | =G/B/c/=g/ =cA | %157
 d^c d D | !//-!=G2 =c2 | d^c d D |][K:G][M:3/4] GBGBGB | GBGBGA | BGDGBG | DFDFDF | Gdgab z | %165
 GBGBGA | BdBdBG | DFDFDF | Dc{c} B4 | FAFAFA | GBGBGB | GAGAGA | FGFGF z | FAFAFA | GBGBGB | %175
 d^c d2 D2 | GB G2 z2 | DFAFAF | DFAFBG | FAFAFA | ^cAGAcA | d^cde f2 | DFAFBG | FAFAFA | ^cAGAGA | %185
 FA F2 z2 | z BBBBB | z GGGGG | z FFFFF | z FFFFF | eA^cfcA | fAdAfA | eA^cAeA | fAdAfA | eF^cFeF | %195
 d^c B2 G2 | A2 A2 A2 | Dd D2 z2 | eF^cFeF | d^c B2 G2 | A2 A2 A2 | D2 F2 D2 | A2 ^c2 A2 | %203
 D2 F2 D2 | A2 ^c2 A2 | d^cdef z | z6 | G6- | G6 | A2 z4 | !/!^c6 | !/!^c6 | dAFAFA | ^cAGAcA | %214
 FAFAFD | ^cAGAcA | dA D2 z2 | z f d2 z2 | z a f2 z2 | z6 | z6 | z6 | !fermata!F2 z4 | GBGBGA | %224
 BdBdBG | FAFAFA | GFGAB z | GBGBGA | BBGBGB | FAFAFA | Ec{c} B4 | FAFAFA | GBGBGB | DFAdcA | %234
 B2 GAB z | FAFAFA | GBGBGB | (d/^c/d/e/) d2 D2 | G2 z2 (B2 | c2) z2 (A2 | B2) z2 (B2 | %241
 c2) z2 (A2 | B2) z2 (F2 | G2) z2 z B | ^G2 G2 G2 | B2 B2 B2 | c2 z2 z ^G | A2 z2 z (^c | %248
 d2) d2 d2 | D2 D2 F2 | G2 gbaf | g2 gbag | gABcde | fgabc'a | b2 B2 B2 | B2 B2 B2 | c2 c2 c2 | %257
!f! ^c2 c2 c2 | d2 d2 d2 |!f! d2 d2 d2 | D2 D2 D2 | D2 D2 D2 |!p! GBGBGB | FAFAFA | GBGBGB | %265
 cDcDcD | BDBDBD | FAFAFA | GBGBGB | cDcDcD | B2 d2 D2 | GB d2 D2 | G2 G2 G2 | G4 z2 | g4 z2 | %275
 G4 z2 |] %276

